X:1
T:Title
%%score ( 1 2 ) { 3 | 4 }
L:1/8
Q:1/4=98
M:6/8
K:C
V:1 treble nm="Grand Piano, Soprano"
V:2 treble 
V:3 treble nm="Choir Pad, Coruña, James Burke, 1891"
V:4 bass 
V:1
 [EG] [EG]2 [CE] [Ec]2 | [EG] [GB]2 [FA] [FA]2 | [FA] [FA]2 [B,D][B,D][CE] | %3
w: By~James~H.~Burke,~1891 * * *|||
 [DF] [FA]2- [FA] [EG]2 | [EG] [EG]2 [CE] [Ec]2 | [GB] [Fd]2 [Fc] [FA]2 | z3 z .G2 | %7
w: ||||
 [FB] [Fd]2- [Fd] [Ec]2 | [Ec] [Fd]2 [FG]F-[FA] | [FB][Ec][GB] [FA] [EG]2 | z3 z .A2 | %11
w: ||||
 [^Fc] [GB]2 [FA] G2 | [FG] [Ec]2 [Ec] [EG]2 | [G_B] [GB]2 [FA] [FA]2 | [FA]E-[Ec] [Ge] [Gf]2 | %15
w: ||||
 [FB] [Fd]2- [Fd] [Ec]2- | [Ec]6 |] %17
w: ||
V:2
 x6 | x6 | x6 | x6 | x6 | x6 | [FA] [EG]2 [EG]F-[FA] | x6 | z3 z .G2 | x6 | %10
 [EG] [FA]2 [FA]^F-[Fd] | x6 | x6 | x6 | z .G2 z3 | x6 | x6 |] %17
V:3
 C C2 G, G,2 | C C2 C C2 | C[K:bass] B,2 G, G,2 | B, C2- C[K:treble] C2 | C C2 G, G,2 | %5
 C A,2 A, C2 | C C2 CB,C | D[K:bass] B,2- B, C2 | C B,2 B,B,[K:treble]C | D C2 C C2 | C C2 C D2 | %11
 D D2 C[K:bass] B,2 | B, C2 G, C2 | C C2 C C2 | C C2 C B,2 | D B,2- B, C2- | C6 |] %17
V:4
 C, C,2 C, C,2 | C, F,2 F, F,2 | F, G,2 z3 | G, C,2- C, C,2 | C, C,2 C, C,2 | E, F,2 F, F,2 | %6
 F, G,2 G, G,2 | G, G,2- G, C,2 | C, G,2 G, G,2 | G, C,2 C, C,2 | C, F,2 F, D,2 | %11
 D, G,2- G,/ z/ G,2 | G, C,2 C, C,2 | E, E,2 F, F,2 | F, G,2 G, G,2 | G, G,,2- G,, C,2- | C,6 |] %17

